X:085
T: Adieu Adieu Thou Faithless World
N: O'Farrell's Pocket Companion v.1 (Sky ed. p.24)
N: "Irish"
D: O'Sullivan Meets O'Farrell track 4
M: C
L: 1/8
R: air
Q: 50
K: A
c/B/|A>BAF E>FAB | c>ecA B2 e/d/c/B/|A>BAF E>FAB |ceB>c A3 :|
A|Acee f>ece| f>e d/c/B/A/ B2 e/d/c/B/|A>BAF E>FAB |ce B/A/B/c/ A3 :|
